X:247
T: Zwei liebten sich (20b), S. 86
N: T0136
O: Luxemburg
S: Singendes Volk, Esch-Alzette 1937 posth.]
N: Merzig, hhh Anton Koob (* 29.12.1843),
N: 1861 (Liederheft),
N: 11.2.1943 (mndlich)
R: Liebeslieder]
M: 3/4
L: 1/16
K: F
C2F2G2 | A6A2G2F2 | G4z2
C2C2B2 | B4z2B2A2G2 | A4z2
c2c2c2 | B3AG2c2c2c2 | A3GF2
A2G2G2 | F4d4c2cB | A4z2
c2c2c2 | B3AG2c2c2c2 | A3GF2
A2A2A2 | G4B2d2c2cB | A4z2

@@@ Tune index: 8301
